X: 121
T: REEL: Devanny's Goat
C: C: Tommy Whelan (?); S: Noel Hill
C: Set Leaders: Tania, Anton, Sophie
Z: Anton Zille ed., Oleg Naumov arr.; Moulouf at The Session
N: https://thesession.org/members/26966/sets/92390
R: Reel
M: 4/4
L: 1/8
Q: 1/2=100
K: Dmaj
|:"D"DFAB AFAB|"D/F#"d2 fe "G"dBAF|"D/F#"DFAF "D/B"BFAF|"Em"EGFD "A"E3F|
"D"AFAB AFAB|"D/F#"defe "G"dBAf|"D/F#"efdB "D/B"AF~F2|"Em"AFEG "A"FD D2:||
|:"D"faab afdf|"D/F#"a/b/a fd "G"edBd|"D"ABde "D/F#"fd~d2|"Em"edfd "A"edBd|
"D"ABde "(D/B)"fd~d2|"G"e/f/g fd "(A)"edBd|"D"ABdB AF~F2|"A"AFEG "(D)"FD D2:||

